!!!COM: Mozart, Wolfgang Amadeus
!!!OPR: Symphony in E-flat Major
!!!OTL: Menuetto and Trio
!!!OMV: 3
!!!SCT: K 543
!!!SCA: Chronologisch-thematisches Verzeichnis sämtlicher Tonwerke Wolfgang Amade Mozarts (L. von Köchel; 1862, 2/1905, 3/1937, 1947)
!!!YOR: Breitkopf & Härtel Edition
!!!EED: Frances Bennion
!!!ENC: Frances Bennion
!!!CDT: 1756/1/27/-1791/12/5/
!!!OCY: Österreich
!!!YEC: Copyright (c) 1994, 2000 Center for Computer Assisted Research in the Humanities
!!!YEM: Rights to all derivative editions reserved.
!!!YEM: Refer to licensing agreement for further details.
!!!YEN: United States of America
**kern	**dynam	**kern	**dynam	**kern	**dynam	**kern	**dynam	**kern	**dynam	**kern	**dynam	**kern	**dynam	**kern	**dynam	**kern	**dynam	**kern	**dynam
*I:Flauto	*I:Flauto	*I:Violoncello e Basso	*I:Violoncello e Basso	*I:Clarinetto 1, 2 in Bb	*I:Clarinetto 1, 2 in Bb	*I:Fagotto 1, 2	*I:Fagotto 1, 2	*I:Corno 1, 2 in Eb	*I:Corno 1, 2 in Eb	*I:Tromba 1, 2 in Eb	*I:Tromba 1, 2 in Eb	*I:Timpani in Eb, Bb	*I:Timpani in Eb, Bb	*I:Violino I	*I:Violino I	*I:Violino II	*I:Violino II	*I:Viola	*I:Viola
*>[A,A,B,B,C,A,A,B,B,C,D,D]	*	*>[A,A,B,B,C,A,A,B,B,C,D,D]	*	*>[A,A,B,B,C,A,A,B,B,C,D,D]	*	*>[A,A,B,B,C,A,A,B,B,C,D,D]	*	*>[A,A,B,B,C,A,A,B,B,C,D,D]	*	*>[A,A,B,B,C,A,A,B,B,C,D,D]	*	*>[A,A,B,B,C,A,A,B,B,C,D,D]	*	*>[A,A,B,B,C,A,A,B,B,C,D,D]	*	*>[A,A,B,B,C,A,A,B,B,C,D,D]	*	*>[A,A,B,B,C,A,A,B,B,C,D,D]	*
*>A	*	*>A	*	*>A	*	*>A	*	*>A	*	*>A	*	*>A	*	*>A	*	*>A	*	*>A	*
*clefG2	*	*clefF4	*	*clefG2	*	*clefF4	*	*clefG2	*	*clefG2	*	*clefF4	*	*clefG2	*	*clefG2	*	*clefC3	*
*k[b-e-a-]	*	*k[b-e-a-]	*	*k[b-]	*	*k[b-e-a-]	*	*k[]	*	*k[]	*	*k[]	*	*k[b-e-a-]	*	*k[b-e-a-]	*	*k[b-e-a-]	*
*c:	*	*c:	*	*c:	*	*c:	*	*c:	*	*c:	*	*c:	*	*c:	*	*c:	*	*c:	*
*M3/4	*	*M3/4	*	*M3/4	*	*M3/4	*	*M3/4	*	*M3/4	*	*M3/4	*	*M3/4	*	*M3/4	*	*M3/4	*
! Allegro	!	!	!	!	!	!	!	!	!	!	!	!	!	!	!	!	!	!	!
*tb8	*	*tb8	*	*tb8	*	*tb8	*	*tb8	*	*tb8	*	*tb8	*	*tb8	*	*tb8	*	*tb8	*
=1-	=1-	=1-	=1-	=1-	=1-	=1-	=1-	=1-	=1-	=1-	=1-	=1-	=1-	=1-	=1-	=1-	=1-	=1-	=1-
*	*	*	*	*^	*	*^	*	*^	*	*^	*	*	*	*	*	*	*	*	*
4ee-\	f	4EE-'/	f	4cc/	4a/	f	4e-\	4G\	ff	4cc/	4c/	f	4cc/	4c/	f	4C/	f	2.ee-/ 2.e-/ 2.G/	f	2.ee-/ 2.e-/ 2.G/	f	4E-'/	f
4eee-\	.	4BB-'/	.	4aa\	4cc\	.	4B-\	4G\	.	4cc/	4c/	.	4cc/	4c/	.	4r	.	.	.	.	.	4B-'/	.
4eee-\	.	4E-'\	.	4aa\	4cc\	.	4B-\	4G\	.	4cc/	4c/	.	4cc/	4c/	.	4r	.	.	.	.	.	4e-'\	.
=2	=2	=2	=2	=2	=2	=2	=2	=2	=2	=2	=2	=2	=2	=2	=2	=2	=2	=2	=2	=2	=2	=2	=2
4eee-\	.	4G'\	.	4ccc\	4cc\	.	4B-\	4G\	.	4cc/	4c/	.	4cc/	4c/	.	4C/	.	8B-'/L	.	8B-'/L	.	4G'/	.
.	.	.	.	.	.	.	.	.	.	.	.	.	.	.	.	.	.	8e-'/	.	8e-'/	.	.	.
4eee-\	.	4A-'\	.	4ddd\	4dd\	.	4c\	4A-\	.	4cc/	4c/	.	4cc/	4c/	.	4r	.	8c'/	.	8c'/	.	4A-'/	.
.	.	.	.	.	.	.	.	.	.	.	.	.	.	.	.	.	.	8e-'/	.	8e-'/	.	.	.
4eee-\	.	4G'\	.	4ccc\	4cc\	.	4B-\	4G\	.	4cc/	4c/	.	4cc/	4c/	.	4r	.	8B-'/	.	8B-'/	.	4G'/	.
.	.	.	.	.	.	.	.	.	.	.	.	.	.	.	.	.	.	8e-'/J	.	8e-'/J	.	.	.
=3	=3	=3	=3	=3	=3	=3	=3	=3	=3	=3	=3	=3	=3	=3	=3	=3	=3	=3	=3	=3	=3	=3	=3
4eee-\	.	4A-'\	.	4ddd\	4dd\	.	4c\	4A-\	.	4cc/	4c/	.	4cc/	4c/	.	4C/	.	8c'/L	.	8c'/L	.	4A-'/	.
.	.	.	.	.	.	.	.	.	.	.	.	.	.	.	.	.	.	8e-'/	.	8e-'/	.	.	.
4ccc\	.	4E-'\	.	4bb-\	4dd\	.	4c\	4A-\	.	4cc/	4c/	.	4cc/	4c/	.	4C/	.	8a-'/	.	8a-/	.	4e-'\	.
.	.	.	.	.	.	.	.	.	.	.	.	.	.	.	.	.	.	8cc'/	.	8cc'/	.	.	.
4ccc\	.	4C'/	.	4bb-\	4dd\	.	4c\	4A-\	.	4cc/	4c/	.	4cc/	4c/	.	4C/	.	8ee-'/	.	8ee-'/	.	4c'\	.
.	.	.	.	.	.	.	.	.	.	.	.	.	.	.	.	.	.	8aa-'/J	.	8aa-'/J	.	.	.
=4	=4	=4	=4	=4	=4	=4	=4	=4	=4	=4	=4	=4	=4	=4	=4	=4	=4	=4	=4	=4	=4	=4	=4
4ccc\	.	4AA-'/	.	4bb-\	4dd\	.	4c\	4A-\	.	4cc/	4c/	.	4cc/	4c/	.	4C/	.	4ccc\	.	4ccc\	.	4A-'/	.
4ccc\	.	4r	.	4bb-\	4dd\	.	4c\	4A-\	.	4cc/	4c/	.	4cc/	4c/	.	4r	.	4r	.	4r	.	4r	.
4ccc\	.	4r	.	4bb-\	4dd\	.	4c\	4A-\	.	4cc/	4c/	.	4cc/	4c/	.	4r	.	4r	.	4r	.	4r	.
=5	=5	=5	=5	=5	=5	=5	=5	=5	=5	=5	=5	=5	=5	=5	=5	=5	=5	=5	=5	=5	=5	=5	=5
4bb-\	.	4BB-/	.	4gg\	4ee\	.	4d\	4B-\	.	4g/	4G/	.	4g/	4G/	.	4GG/	.	2.bb-\ 2.b-\ 2.d\	.	2.bb-\ 2.b-\ 2.d\	.	4B-/	.
4bb-\	.	4F\	.	4gg\	4ee\	.	4f\	4d\	.	4g/	4G/	.	4g/	4G/	.	4r	.	.	.	.	.	4f\	.
4bb-\	.	4B-\	.	4gg\	4ee\	.	4f\	4d\	.	4g/	4G/	.	4g/	4G/	.	4r	.	.	.	.	.	4b-\	.
=6	=6	=6	=6	=6	=6	=6	=6	=6	=6	=6	=6	=6	=6	=6	=6	=6	=6	=6	=6	=6	=6	=6	=6
4bb-\	.	4d\	.	4bb-\	4gg\	.	4f\	4d\	.	4g/	4G/	.	4g/	4G/	.	4GG/	.	8A-'/L	.	8A-'/L	.	4D/	.
.	.	.	.	.	.	.	.	.	.	.	.	.	.	.	.	.	.	8B-'/	.	8B-'/	.	.	.
4bb-\	.	4e-\	.	4aa\	4ff\	.	4g\	4e-\	.	4g/	4G/	.	4g/	4G/	.	4r	.	8G'/	.	8G'/	.	4E-/	.
.	.	.	.	.	.	.	.	.	.	.	.	.	.	.	.	.	.	8B-'/	.	8B-'/	.	.	.
4bb-\	.	4d\	.	4bb-\	4gg\	.	4f\	4d\	.	4g/	4G/	.	4g/	4G/	.	4r	.	8A-'/	.	8A-'/	.	4D/	.
.	.	.	.	.	.	.	.	.	.	.	.	.	.	.	.	.	.	8B-'/J	.	8B-'/J	.	.	.
=7	=7	=7	=7	=7	=7	=7	=7	=7	=7	=7	=7	=7	=7	=7	=7	=7	=7	=7	=7	=7	=7	=7	=7
4bb-\	.	4e-\	.	4aa\	4ff\	.	4g\	4e-\	.	4g/	4G/	.	4g/	4G/	.	4C/	.	8G'/L	.	8G'/L	.	4E-/	.
.	.	.	.	.	.	.	.	.	.	.	.	.	.	.	.	.	.	8B-'/	.	8B-'/	.	.	.
4gg\	.	4B-\	.	4ff\	4cc\	.	4B-\	4G\	.	4e/	4c/	.	4e/	4c/	.	4C/	.	8e-'/	.	8e-'/	.	4B-/	.
.	.	.	.	.	.	.	.	.	.	.	.	.	.	.	.	.	.	8g'/	.	8g'/	.	.	.
4gg\	.	4G\	.	4ff\	4cc\	.	4B-\	4G\	.	4e/	4c/	.	4e/	4c/	.	4C/	.	8b-'/	.	8b-'/	.	4G/	.
.	.	.	.	.	.	.	.	.	.	.	.	.	.	.	.	.	.	8ee-'/J	.	8ee-'/J	.	.	.
=8	=8	=8	=8	=8	=8	=8	=8	=8	=8	=8	=8	=8	=8	=8	=8	=8	=8	=8	=8	=8	=8	=8	=8
4gg\	.	4E-\	.	4ff\	4cc\	.	4B-\	4G\	.	4e/	4c/	.	4e/	4c/	.	4C/	.	4gg\	.	4gg\	.	4E-/	.
4gg\	.	4r	.	4ff\	4cc\	.	4B-\	4G\	.	4e/	4c/	.	4e/	4c/	.	4r	.	4r	.	4r	.	4r	.
4gg\	.	4r	.	4ff\	4cc\	.	4B-\	4G\	.	4e/	4c/	.	4e/	4c/	.	4r	.	4gg\	.	4r	.	4r	.
=9	=9	=9	=9	=9	=9	=9	=9	=9	=9	=9	=9	=9	=9	=9	=9	=9	=9	=9	=9	=9	=9	=9	=9
2.r	.	(2A-\	mfp	2.r	2.r	.	2.r	2.r	.	2.r	2.r	.	2.r	2.r	.	2.r	.	(4ff\	mfp	(8d/L	mfp	(4d\	mfp
.	.	.	.	.	.	.	.	.	.	.	.	.	.	.	.	.	.	.	.	8f/	.	.	.
.	.	.	.	.	.	.	.	.	.	.	.	.	.	.	.	.	.	4dd\	.	8b-/	.	4f\	.
.	.	.	.	.	.	.	.	.	.	.	.	.	.	.	.	.	.	.	.	8f/	.	.	.
.	.	4G\)	.	.	.	.	.	.	.	.	.	.	.	.	.	.	.	4ee-\)	.	8b-/	.	4e-\)	.
.	.	.	.	.	.	.	.	.	.	.	.	.	.	.	.	.	.	.	.	8g/J)	.	.	.
=10	=10	=10	=10	=10	=10	=10	=10	=10	=10	=10	=10	=10	=10	=10	=10	=10	=10	=10	=10	=10	=10	=10	=10
2.r	.	(2A-\	mfp	2.r	2.r	.	2.r	2.r	.	2.r	2.r	.	2.r	2.r	.	2.r	.	(4ff\	mfp	(8d/L	mfp	(4d\	mfp
.	.	.	.	.	.	.	.	.	.	.	.	.	.	.	.	.	.	.	.	8f/	.	.	.
.	.	.	.	.	.	.	.	.	.	.	.	.	.	.	.	.	.	4dd\	.	8b-/	.	4f\	.
.	.	.	.	.	.	.	.	.	.	.	.	.	.	.	.	.	.	.	.	8f/	.	.	.
.	.	4G\)	.	.	.	.	.	.	.	.	.	.	.	.	.	.	.	4ee-\)	.	8b-/	.	4e-\)	.
.	.	.	.	.	.	.	.	.	.	.	.	.	.	.	.	.	.	.	.	8g/J)	.	.	.
=11	=11	=11	=11	=11	=11	=11	=11	=11	=11	=11	=11	=11	=11	=11	=11	=11	=11	=11	=11	=11	=11	=11	=11
!	!	!	!	!	!	!	!	!	!	!	!	!	!	!	!	!	!	! 16bb-P/	!	!	!	!	!
2.r	.	4F'\	p	2.r	2.r	.	2.r	2.r	.	2.r	2.r	.	2.r	2.r	.	2.r	.	4aa-p\	p	(8c/L	p	(2c\	p
.	.	.	.	.	.	.	.	.	.	.	.	.	.	.	.	.	.	.	.	8f/	.	.	.
.	.	(4F\	.	.	.	.	.	.	.	.	.	.	.	.	.	.	.	4aa-'\	.	8a-/	.	.	.
.	.	.	.	.	.	.	.	.	.	.	.	.	.	.	.	.	.	.	.	8f/	.	.	.
.	.	4E-\)	.	.	.	.	.	.	.	.	.	.	.	.	.	.	.	4aa-'\	.	8a-/	.	4c-\)	.
.	.	.	.	.	.	.	.	.	.	.	.	.	.	.	.	.	.	.	.	8f/J)	.	.	.
=12	=12	=12	=12	=12	=12	=12	=12	=12	=12	=12	=12	=12	=12	=12	=12	=12	=12	=12	=12	=12	=12	=12	=12
2.r	.	(2D\	.	2.r	2.r	.	2.r	2.r	.	2.r	2.r	.	2.r	2.r	.	2.r	.	(2aa-\	.	(8B-/L	.	[2.B-/	.
.	.	.	.	.	.	.	.	.	.	.	.	.	.	.	.	.	.	.	.	8f/	.	.	.
.	.	.	.	.	.	.	.	.	.	.	.	.	.	.	.	.	.	.	.	8a-/	.	.	.
.	.	.	.	.	.	.	.	.	.	.	.	.	.	.	.	.	.	.	.	8f/	.	.	.
.	.	4E-\)	.	.	.	.	.	.	.	.	.	.	.	.	.	.	.	4gg\)	.	8g/	.	.	.
.	.	.	.	.	.	.	.	.	.	.	.	.	.	.	.	.	.	.	.	8e-/J)	.	.	.
=13	=13	=13	=13	=13	=13	=13	=13	=13	=13	=13	=13	=13	=13	=13	=13	=13	=13	=13	=13	=13	=13	=13	=13
2.r	.	4D'\	.	(2gg\	2ee\	pp	2.r	2.r	.	2.r	2.r	.	2.r	2.r	.	2.r	.	4ff'\	.	4b-\	.	4B-/]	.
.	.	4r	.	.	.	.	.	.	.	.	.	.	.	.	.	.	.	4ff'\	.	4r	.	4r	.
.	.	4E-'\	.	4ff\	4dd\	.	.	.	.	.	.	.	.	.	.	.	.	(8gg\L	.	(8ee-\L	.	4g'\	.
.	.	.	.	.	.	.	.	.	.	.	.	.	.	.	.	.	.	8ee-\J)	.	8cc\J)	.	.	.
=14	=14	=14	=14	=14	=14	=14	=14	=14	=14	=14	=14	=14	=14	=14	=14	=14	=14	=14	=14	=14	=14	=14	=14
(2ddd\	p	4F'\	.	2ee\	2cc\	.	(2f\	2d\	pp	2.r	2.r	.	2.r	2.r	.	2.r	.	4dd'\	.	4b-'\	.	4f'\	.
.	.	4r	.	.	.	.	.	.	.	.	.	.	.	.	.	.	.	4dd'\	.	4b-'\	.	4r	.
8eee-\L	.	4FF'/	.	4dd\)	4bn\	.	4e-\)	4c\	.	.	.	.	.	.	.	.	.	(8ee-\L	.	(8cc/L	.	4an'\	.
8ccc\J)	.	.	.	.	.	.	.	.	.	.	.	.	.	.	.	.	.	8cc\J)	.	8e-/J)	.	.	.
=15	=15	=15	=15	=15	=15	=15	=15	=15	=15	=15	=15	=15	=15	=15	=15	=15	=15	=15	=15	=15	=15	=15	=15
4bb-'\	.	4BB-'/	.	4cc'\	4cc\	.	4d'\	4B-\	.	4dd\	4g\	p	2.r	2.r	.	2.r	.	4b-'\	.	4d'/	.	4b-'\	.
(4bb-\	.	4BB-/	.	(4ee\	4cc\	.	(4d\	4B-\	.	4dd\	4g\	.	.	.	.	.	.	(4b-\	.	(4d/	.	4B-/	.
4ddd\)	.	4BB-/	.	4gg\)	4ee\	.	4f\)	4d\	.	4dd\	4g\	.	.	.	.	.	.	4dd\)	.	4f/)	.	4B-/	.
=16	=16	=16	=16	=16	=16	=16	=16	=16	=16	=16	=16	=16	=16	=16	=16	=16	=16	=16	=16	=16	=16	=16	=16
4bb-\	.	4BB-/	.	4ee\	4cc\	.	4d\	4B-\	.	4dd\	4g\	.	2.r	2.r	.	2.r	.	4b-\	.	4d/	.	4B-/	.
4r	.	4r	.	4r	4r	.	4r	4r	.	4r	4r	.	.	.	.	.	.	4r	.	4r	.	4r	.
4r	.	4r	.	4r	4r	.	4r	4r	.	4r	4r	.	.	.	.	.	.	4r	.	4r	.	4r	.
=17:!!:	=17:!!:	=17:!!:	=17:!!:	=17:!!:	=17:!!:	=17:!!:	=17:!!:	=17:!!:	=17:!!:	=17:!!:	=17:!!:	=17:!!:	=17:!!:	=17:!!:	=17:!!:	=17:!!:	=17:!!:	=17:!!:	=17:!!:	=17:!!:	=17:!!:	=17:!!:	=17:!!:
*>B	*	*>B	*	*>B	*	*	*	*	*	*>B	*	*	*>B	*	*	*>B	*	*>B	*	*>B	*	*>B	*
*	*	*	*	*	*	*	*v	*v	*	*	*	*	*	*	*	*	*	*	*	*	*	*	*
*	*	*	*	*	*	*	*>B	*	*	*	*	*	*	*	*	*	*	*	*	*	*	*
!	!	!	!	!	!	!	! a 2.	!	!	!	!	!	!	!	!	!	!	!	!	!	!	!
!	!	!	!	!	!	!	!	!	!	!	!	!	!	!	!	!	!	!	!	!	!	!
4bb-\	.	4BB-/	f	4ccc\	4cc\	f	[2.B-\	f	4g/	4G/	f	4g/	4G/	f	4GG/	f	2bb-\ 2b-\ 2d\	f	2bb-\ 2b-\ 2d\	f	4B-'/	f
4bb-\	.	4B-'\	.	4ccc\	4cc\	.	.	.	4g/	4G/	.	4g/	4G/	.	4r	.	.	.	.	.	4d'\	.
4bb-\	.	4A-'\	.	4ccc\	4cc\	.	.	.	4g/	4G/	.	4g/	4G/	.	4r	.	8dd'\L	.	8dd'\L	.	4f'\	.
.	.	.	.	.	.	.	.	.	.	.	.	.	.	.	.	.	8b-'\J	.	8b-'\J	.	.	.
=18	=18	=18	=18	=18	=18	=18	=18	=18	=18	=18	=18	=18	=18	=18	=18	=18	=18	=18	=18	=18	=18	=18
4bb-\	.	4G'\	.	4ccc\	4cc\	.	4B-\]	.	4g/	4G/	.	4g/	4G/	.	2.r	.	8ee-'\L	.	8ee-'\L	.	4g'\	.
.	.	.	.	.	.	.	.	.	.	.	.	.	.	.	.	.	8b-'\	.	8b-'\	.	.	.
4bb-\	.	4F'\	.	4ccc\	4cc\	.	(4D\	.	4g/	4G/	.	4g/	4G/	.	.	.	8ff'\	.	8ff'\	.	4a-'\	.
.	.	.	.	.	.	.	.	.	.	.	.	.	.	.	.	.	8b-'\	.	8b-'\	.	.	.
4bb-\	.	4E-'\	.	4ccc\	4cc\	.	4E-\)	.	4g/	4G/	.	4g/	4G/	.	.	.	8gg'\	.	8gg'\	.	4g'\	.
.	.	.	.	.	.	.	.	.	.	.	.	.	.	.	.	.	8b-'\J	.	8b-'\J	.	.	.
=19	=19	=19	=19	=19	=19	=19	=19	=19	=19	=19	=19	=19	=19	=19	=19	=19	=19	=19	=19	=19	=19	=19
4bb-\	.	4D\	.	4ccc\	4cc\	.	4F\	.	4g/	4G/	.	4g/	4G/	.	4GG/	.	2aa-\	.	2aa-\	.	4f'\	.
4bb-\	.	4BB-/	.	4ccc\	4cc\	.	[2B-\	.	4g/	4G/	.	4g/	4G/	.	4r	.	.	.	.	.	4d'\	.
4bb-\	.	4AA-/	.	4ccc\	4cc\	.	.	.	4g/	4G/	.	4g/	4G/	.	4r	.	8d'/L	.	8d'/L	.	4F'/	.
.	.	.	.	.	.	.	.	.	.	.	.	.	.	.	.	.	8b-'/J	.	8b-'/J	.	.	.
=20	=20	=20	=20	=20	=20	=20	=20	=20	=20	=20	=20	=20	=20	=20	=20	=20	=20	=20	=20	=20	=20	=20
4bb-\	.	4GG/	.	4ccc\	4cc\	.	4B-\]	.	4g/	4G/	.	4g/	4G/	.	2.r	.	8e-'/L	.	8e-'/L	.	4G'/	.
.	.	.	.	.	.	.	.	.	.	.	.	.	.	.	.	.	8b-'/	.	8b-'/	.	.	.
4bb-\	.	4FF/	.	4ccc\	4cc\	.	(4d\	.	4g/	4G/	.	4g/	4G/	.	.	.	8f'/	.	8f'/	.	4A-'/	.
.	.	.	.	.	.	.	.	.	.	.	.	.	.	.	.	.	8b-'/	.	8b-'/	.	.	.
4bb-\	.	4EE-/	.	4ccc\	4cc\	.	4e-\)	.	4g/	4G/	.	4g/	4G/	.	.	.	8g'/	.	8g'/	.	4B-'/	.
.	.	.	.	.	.	.	.	.	.	.	.	.	.	.	.	.	8b-'/J	.	8b-'/J	.	.	.
=21	=21	=21	=21	=21	=21	=21	=21	=21	=21	=21	=21	=21	=21	=21	=21	=21	=21	=21	=21	=21	=21	=21
*	*	*	*	*	*	*	*^	*	*	*	*	*	*	*	*	*	*	*	*	*	*	*
4ccc\	.	4AA-/	.	4bb-\	4dd\	.	4f\	4c\	.	2.r	2.r	.	2.r	2.r	.	2.r	.	(8c/L	.	(8c/L	.	4F/	.
.	.	.	.	.	.	.	.	.	.	.	.	.	.	.	.	.	.	8en/)	.	8en/)	.	.	.
4r	.	4r	.	4r	4r	.	4r	4r	.	.	.	.	.	.	.	.	.	8f'/	.	8f'/	.	4r	.
.	.	.	.	.	.	.	.	.	.	.	.	.	.	.	.	.	.	8g'/	.	8g'/	.	.	.
4r	.	4r	.	4r	4r	.	4r	4r	.	.	.	.	.	.	.	.	.	8a-'/	.	8a-'/	.	4r	.
.	.	.	.	.	.	.	.	.	.	.	.	.	.	.	.	.	.	8bn'/J	.	8bn'/J	.	.	.
=22	=22	=22	=22	=22	=22	=22	=22	=22	=22	=22	=22	=22	=22	=22	=22	=22	=22	=22	=22	=22	=22	=22	=22
4aa-\	.	4A-\	.	4gg\	4dd\	.	4f\	4c\	.	2.r	2.r	.	2.r	2.r	.	2.r	.	(8cc\L	.	(8cc\L	.	4f\	.
.	.	.	.	.	.	.	.	.	.	.	.	.	.	.	.	.	.	8een\)	.	8een\)	.	.	.
4r	.	4r	.	4r	4r	.	4r	4r	.	.	.	.	.	.	.	.	.	8ff'\	.	8ff'\	.	4r	.
.	.	.	.	.	.	.	.	.	.	.	.	.	.	.	.	.	.	8gg'\	.	8gg'\	.	.	.
4r	.	4r	.	4r	4r	.	4r	4r	.	.	.	.	.	.	.	.	.	8aa-'\	.	8aa-'\	.	4r	.
.	.	.	.	.	.	.	.	.	.	.	.	.	.	.	.	.	.	8ff'\J	.	8ff'\J	.	.	.
=23	=23	=23	=23	=23	=23	=23	=23	=23	=23	=23	=23	=23	=23	=23	=23	=23	=23	=23	=23	=23	=23	=23	=23
4ff\	.	4B-\	.	4ee\	4b-\	.	4d\	4A-\	.	4dd/	4G/	.	4g/	4G/	.	4GG/	.	(8ee-\L	.	(8ee-\L	.	4a-\ 4B-\	.
.	.	.	.	.	.	.	.	.	.	.	.	.	.	.	.	.	.	8dd\)	.	8dd\)	.	.	.
4r	.	4r	.	4r	4r	.	4r	4r	.	4r	4r	.	4r	4r	.	4r	.	(8gg\	.	(8gg\	.	4r	.
.	.	.	.	.	.	.	.	.	.	.	.	.	.	.	.	.	.	8ff\)	.	8ff\)	.	.	.
4r	.	4r	.	4r	4r	.	4r	4r	.	4r	4r	.	4r	4r	.	4r	.	(8ee-\	.	(8ee-\	.	4r	.
.	.	.	.	.	.	.	.	.	.	.	.	.	.	.	.	.	.	8dd\J)	.	8dd\J)	.	.	.
=24	=24	=24	=24	=24	=24	=24	=24	=24	=24	=24	=24	=24	=24	=24	=24	=24	=24	=24	=24	=24	=24	=24	=24
2.r	.	2.r	.	2.r	2.r	.	2.r	2.r	.	2.r	2.r	.	2.r	2.r	.	2.r	.	(8cc/L	.	(8cc/L	.	2.r	.
.	.	.	.	.	.	.	.	.	.	.	.	.	.	.	.	.	.	8b-/	.	8b-/	.	.	.
.	.	.	.	.	.	.	.	.	.	.	.	.	.	.	.	.	.	8an/	.	8an/	.	.	.
.	.	.	.	.	.	.	.	.	.	.	.	.	.	.	.	.	.	8b-/	.	8b-/	.	.	.
.	.	.	.	.	.	.	.	.	.	.	.	.	.	.	.	.	.	8a-/	.	8a-/	.	.	.
.	.	.	.	.	.	.	.	.	.	.	.	.	.	.	.	.	.	8f/J)	.	8f/J)	.	.	.
=25	=25	=25	=25	=25	=25	=25	=25	=25	=25	=25	=25	=25	=25	=25	=25	=25	=25	=25	=25	=25	=25	=25	=25
4ee-\	.	4EE-'/	.	4cc\	4a\	.	4G\	4E-\	.	4cc/	4c/	.	4cc/	4c/	.	4C/	.	2.ee-/ 2.e-/ 2.G/	.	2.ee-/ 2.e-/ 2.G/	.	4E-'/	.
4eee-\	.	4BB-'/	.	4ccc\	4aa\	.	4B-\	4G\	.	4cc/	4c/	.	4cc/	4c/	.	4r	.	.	.	.	.	4B-'/	.
4eee-\	.	4E-'\	.	4ccc\	4aa\	.	4B-\	4G\	.	4cc/	4c/	.	4cc/	4c/	.	4r	.	.	.	.	.	4e-'\	.
=26	=26	=26	=26	=26	=26	=26	=26	=26	=26	=26	=26	=26	=26	=26	=26	=26	=26	=26	=26	=26	=26	=26	=26
4eee-\	.	4G'\	.	4ccc\	4cc\	.	4B-\	4G\	.	4cc/	4c/	.	4cc/	4c/	.	4C/	.	8B-'/L	.	8B-'/L	.	4G'/	.
.	.	.	.	.	.	.	.	.	.	.	.	.	.	.	.	.	.	8e-'/	.	8e-'/	.	.	.
4eee-\	.	4A-'\	.	4ddd\	4dd\	.	4c\	4A-\	.	4cc/	4c/	.	4cc/	4c/	.	4r	.	8c'/	.	8c'/	.	4A-'/	.
.	.	.	.	.	.	.	.	.	.	.	.	.	.	.	.	.	.	8e-'/	.	8e-'/	.	.	.
4eee-\	.	4G'\	.	4ccc\	4cc\	.	4B-\	4G\	.	4cc/	4c/	.	4cc/	4c/	.	4r	.	8B-'/	.	8B-'/	.	4G'/	.
.	.	.	.	.	.	.	.	.	.	.	.	.	.	.	.	.	.	8e-'/J	.	8e-'/J	.	.	.
=27	=27	=27	=27	=27	=27	=27	=27	=27	=27	=27	=27	=27	=27	=27	=27	=27	=27	=27	=27	=27	=27	=27	=27
4eee-\	.	4A-'\	.	4ddd\	4dd\	.	4c\	4A-\	.	4cc/	4c/	.	4cc/	4c/	.	4C/	.	8c'/L	.	8c'/L	.	4A-'/	.
.	.	.	.	.	.	.	.	.	.	.	.	.	.	.	.	.	.	8e-'/	.	8e-'/	.	.	.
4ccc\	.	4E-'\	.	4bb-\	4dd\	.	4c\	4A-\	.	4cc/	4c/	.	4cc/	4c/	.	4C/	.	8a-'/	.	8a-'/	.	4e-'\	.
.	.	.	.	.	.	.	.	.	.	.	.	.	.	.	.	.	.	8cc'/	.	8cc'/	.	.	.
4ccc\	.	4C'/	.	4bb-\	4dd\	.	4c\	4A-\	.	4cc/	4c/	.	4cc/	4c/	.	4C/	.	8ee-'/	.	8ee-'/	.	4c'\	.
.	.	.	.	.	.	.	.	.	.	.	.	.	.	.	.	.	.	8aa-'/J	.	8aa-'/J	.	.	.
=28	=28	=28	=28	=28	=28	=28	=28	=28	=28	=28	=28	=28	=28	=28	=28	=28	=28	=28	=28	=28	=28	=28	=28
4ccc\	.	4AA-'/	.	4bb-\	4dd\	.	4c\	4A-\	.	4cc/	4c/	.	4cc/	4c/	.	4C/	.	4ccc\	.	4ccc\	.	4A-'/	.
4ccc\	.	4r	.	4bb-\	4dd\	.	4c\	4A-\	.	4cc/	4c/	.	4cc/	4c/	.	4r	.	4r	.	4r	.	4r	.
4ccc\	.	4r	.	4bb-\	4dd\	.	4c\	4A-\	.	4cc/	4c/	.	4cc/	4c/	.	4r	.	4r	.	4r	.	4r	.
=29	=29	=29	=29	=29	=29	=29	=29	=29	=29	=29	=29	=29	=29	=29	=29	=29	=29	=29	=29	=29	=29	=29	=29
4bb-\	.	4BB-/	.	4gg\	4ee\	.	4d\	4B-\	.	4g/	4G/	.	4g/	4G/	.	4GG/	.	2.bb-\ 2.b-\ 2.d\	.	2.bb-\ 2.b-\ 2.d\	.	4B-/	.
4bb-\	.	4F\	.	4gg\	4ee\	.	4f\	4d\	.	4g/	4G/	.	4g/	4G/	.	4r	.	.	.	.	.	4f\	.
4bb-\	.	4B-\	.	4gg\	4ee\	.	4f\	4d\	.	4g/	4G/	.	4g/	4G/	.	4r	.	.	.	.	.	4b-\	.
=30	=30	=30	=30	=30	=30	=30	=30	=30	=30	=30	=30	=30	=30	=30	=30	=30	=30	=30	=30	=30	=30	=30	=30
4bb-\	.	4d\	.	4bb-\	4gg\	.	4f\	4d\	.	4g/	4G/	.	4g/	4G/	.	4GG/	.	8A-'/L	.	8A-'/L	.	4D/	.
.	.	.	.	.	.	.	.	.	.	.	.	.	.	.	.	.	.	8B-'/	.	8B-'/	.	.	.
4bb-\	.	4e-\	.	4aa\	4ff\	.	4g\	4e-\	.	4g/	4G/	.	4g/	4G/	.	4GG/	.	8G'/	.	8G'/	.	4E-/	.
.	.	.	.	.	.	.	.	.	.	.	.	.	.	.	.	.	.	8B-'/	.	8B-'/	.	.	.
4bb-\	.	4d\	.	4bb-\	4gg\	.	4f\	4d\	.	4g/	4G/	.	4g/	4G/	.	4GG/	.	8A-'/	.	8A-'/	.	4D/	.
.	.	.	.	.	.	.	.	.	.	.	.	.	.	.	.	.	.	8B-'/J	.	8B-'/J	.	.	.
=31	=31	=31	=31	=31	=31	=31	=31	=31	=31	=31	=31	=31	=31	=31	=31	=31	=31	=31	=31	=31	=31	=31	=31
4bb-\	.	4e-\	.	4aa\	4ff\	.	4g\	4e-\	.	4g/	4G/	.	4g/	4G/	.	4C/	.	8G'/L	.	8G'/L	.	4E-/	.
.	.	.	.	.	.	.	.	.	.	.	.	.	.	.	.	.	.	8e-'/	.	8e-'/	.	.	.
4gg\	.	4B-\	.	4ff\	4cc\	.	4B-\	4G\	.	4e/	4c/	.	4e/	4c/	.	4C/	.	8g'/	.	8g'/	.	4B-/	.
.	.	.	.	.	.	.	.	.	.	.	.	.	.	.	.	.	.	8b-'/	.	8b-'/	.	.	.
4gg\	.	4G\	.	4ff\	4cc\	.	4B-\	4G\	.	4e/	4c/	.	4e/	4c/	.	4C/	.	8ee-'/	.	8ee-'/	.	4G/	.
.	.	.	.	.	.	.	.	.	.	.	.	.	.	.	.	.	.	8gg'/J	.	8gg'/J	.	.	.
=32	=32	=32	=32	=32	=32	=32	=32	=32	=32	=32	=32	=32	=32	=32	=32	=32	=32	=32	=32	=32	=32	=32	=32
4gg\	.	4E-\	.	4ff\	4cc\	.	4B-\	4G\	.	4e/	4c/	.	4e/	4c/	.	4C/	.	4bb-\	.	4bb-\	.	4E-/	.
4gg\	.	4r	.	4ff\	4cc\	.	4B-\	4G\	.	4e/	4c/	.	4e/	4c/	.	4r	.	4r	.	4r	.	4r	.
4gg\	.	4r	.	4ff\	4cc\	.	4B-\	4G\	.	4e/	4c/	.	4e/	4c/	.	4r	.	4gg\	p	4r	.	4r	.
=33	=33	=33	=33	=33	=33	=33	=33	=33	=33	=33	=33	=33	=33	=33	=33	=33	=33	=33	=33	=33	=33	=33	=33
2.r	.	(2A-\	mfp	2.r	2.r	.	2.r	2.r	.	2.r	2.r	.	2.r	2.r	.	2.r	.	(4ff\	mfp	(8d/L	mfp	(4d\	mfp
.	.	.	.	.	.	.	.	.	.	.	.	.	.	.	.	.	.	.	.	8f/	.	.	.
.	.	.	.	.	.	.	.	.	.	.	.	.	.	.	.	.	.	4dd\	.	8b-/	.	4f\	.
.	.	.	.	.	.	.	.	.	.	.	.	.	.	.	.	.	.	.	.	8f/	.	.	.
.	.	4G\)	.	.	.	.	.	.	.	.	.	.	.	.	.	.	.	4ee-\)	.	8b-/	.	4e-\)	.
.	.	.	.	.	.	.	.	.	.	.	.	.	.	.	.	.	.	.	.	8g/J)	.	.	.
=34	=34	=34	=34	=34	=34	=34	=34	=34	=34	=34	=34	=34	=34	=34	=34	=34	=34	=34	=34	=34	=34	=34	=34
2.r	.	(2A-\	mfp	2.r	2.r	.	2.r	2.r	.	2.r	2.r	.	2.r	2.r	.	2.r	.	(4ff\	mfp	(8d/L	mfp	(4d\	mfp
.	.	.	.	.	.	.	.	.	.	.	.	.	.	.	.	.	.	.	.	8f/	.	.	.
.	.	.	.	.	.	.	.	.	.	.	.	.	.	.	.	.	.	4dd\	.	8b-/	.	4f\	.
.	.	.	.	.	.	.	.	.	.	.	.	.	.	.	.	.	.	.	.	8f/	.	.	.
.	.	4G\)	.	.	.	.	.	.	.	.	.	.	.	.	.	.	.	4ee-\)	.	8b-/	.	4e-\)	.
.	.	.	.	.	.	.	.	.	.	.	.	.	.	.	.	.	.	.	.	8g/J)	.	.	.
=35	=35	=35	=35	=35	=35	=35	=35	=35	=35	=35	=35	=35	=35	=35	=35	=35	=35	=35	=35	=35	=35	=35	=35
!	!	!	!	!	!	!	!	!	!	!	!	!	!	!	!	!	!	! 16bb-P/	!	!	!	!	!
2.r	.	4F'\	p	2.r	2.r	.	2.r	2.r	.	2.r	2.r	.	2.r	2.r	.	2.r	.	4aa-p\	p	(8c/L	p	(2c\	p
.	.	.	.	.	.	.	.	.	.	.	.	.	.	.	.	.	.	.	.	8f/	.	.	.
.	.	(4F\	.	.	.	.	.	.	.	.	.	.	.	.	.	.	.	4aa-'\	.	8a-/	.	.	.
.	.	.	.	.	.	.	.	.	.	.	.	.	.	.	.	.	.	.	.	8f/	.	.	.
.	.	4E-\)	.	.	.	.	.	.	.	.	.	.	.	.	.	.	.	4aa-'\	.	8a-/	.	4c-\)	.
.	.	.	.	.	.	.	.	.	.	.	.	.	.	.	.	.	.	.	.	8f/J)	.	.	.
=36	=36	=36	=36	=36	=36	=36	=36	=36	=36	=36	=36	=36	=36	=36	=36	=36	=36	=36	=36	=36	=36	=36	=36
2.r	.	(2D\	.	2.r	2.r	.	2.r	2.r	.	2.r	2.r	.	2.r	2.r	.	2.r	.	(2aa-\	.	(8B-/L	.	(2.B-/	.
.	.	.	.	.	.	.	.	.	.	.	.	.	.	.	.	.	.	.	.	8f/	.	.	.
.	.	.	.	.	.	.	.	.	.	.	.	.	.	.	.	.	.	.	.	8a-/	.	.	.
.	.	.	.	.	.	.	.	.	.	.	.	.	.	.	.	.	.	.	.	8f/	.	.	.
.	.	4E-\)	.	.	.	.	.	.	.	.	.	.	.	.	.	.	.	4gg\)	.	8g/	.	.	.
.	.	.	.	.	.	.	.	.	.	.	.	.	.	.	.	.	.	.	.	8e-/J)	.	.	.
=37	=37	=37	=37	=37	=37	=37	=37	=37	=37	=37	=37	=37	=37	=37	=37	=37	=37	=37	=37	=37	=37	=37	=37
!	!	!	!	!	!	!	!	!	!	!	!	!	!	!	!	!	!	! 16ggP/	!	!	!	!	!
(2.ff\	p	4A-\	.	(2.b-/	2.r	p	(2.c/	2.r	p	2.r	2.r	.	2.r	2.r	.	2.r	.	4ffp\	.	(8c/L	.	4A-/)	.
.	.	.	.	.	.	.	.	.	.	.	.	.	.	.	.	.	.	.	.	8f/	.	.	.
.	.	4r	.	.	.	.	.	.	.	.	.	.	.	.	.	.	.	4ff'\	.	8a-/	.	4r	.
.	.	.	.	.	.	.	.	.	.	.	.	.	.	.	.	.	.	.	.	8f/	.	.	.
.	.	4r	.	.	.	.	.	.	.	.	.	.	.	.	.	.	.	4ff'\	.	8a-/	.	4r	.
.	.	.	.	.	.	.	.	.	.	.	.	.	.	.	.	.	.	.	.	8f/J)	.	.	.
=38	=38	=38	=38	=38	=38	=38	=38	=38	=38	=38	=38	=38	=38	=38	=38	=38	=38	=38	=38	=38	=38	=38	=38
!	!	!	!	!	!	!	!	!	!	!	!	!	!	!	!	!	!	! 16ee-P/	!	!	!	!	!
2.dd\)	.	4B-\	.	2.g/)	2.r	.	2.A-/)	2.r	.	2.r	2.r	.	2.r	2.r	.	2.r	.	4ddp\	.	(8B-/L	.	4B-/	.
.	.	.	.	.	.	.	.	.	.	.	.	.	.	.	.	.	.	.	.	8f/	.	.	.
.	.	4r	.	.	.	.	.	.	.	.	.	.	.	.	.	.	.	4dd'\	.	8a-/	.	4r	.
.	.	.	.	.	.	.	.	.	.	.	.	.	.	.	.	.	.	.	.	8f/	.	.	.
.	.	4r	.	.	.	.	.	.	.	.	.	.	.	.	.	.	.	4dd'\	.	8a-/	.	4r	.
.	.	.	.	.	.	.	.	.	.	.	.	.	.	.	.	.	.	.	.	8f/J)	.	.	.
=39	=39	=39	=39	=39	=39	=39	=39	=39	=39	=39	=39	=39	=39	=39	=39	=39	=39	=39	=39	=39	=39	=39	=39
2.bb-\	f	4G'\	f	(4ff\	4cc\	f	(4e-\	4B-\	ff	2.g/	2.G/	f	2.g/	2.G/	f	4GG/	f	(8ee-\L	f	(8e-/L	f	(4B-/	f
.	.	.	.	.	.	.	.	.	.	.	.	.	.	.	.	.	.	8bb-\)	.	8b-/)	.	.	.
.	.	4F'\	.	4ee\	4b-\	.	4d\	4A-\	.	.	.	.	.	.	.	4r	.	(8bb-\	.	(8b-/	.	4d\	.
.	.	.	.	.	.	.	.	.	.	.	.	.	.	.	.	.	.	8aa-\)	.	8a-/)	.	.	.
.	.	4E-'\	.	4ff\)	4a\	.	4e-\)	4G\	.	.	.	.	.	.	.	4r	.	(8aa-\	.	(8a-/	.	4e-\)	.
.	.	.	.	.	.	.	.	.	.	.	.	.	.	.	.	.	.	8gg\J)	.	8g/J)	.	.	.
=40	=40	=40	=40	=40	=40	=40	=40	=40	=40	=40	=40	=40	=40	=40	=40	=40	=40	=40	=40	=40	=40	=40	=40
(8bb-\L	.	4A-'\	.	(8aa\L	8cc\L	.	4A-'\	4A-\	.	4r	4r	.	4r	4r	.	4r	.	(8gg\L	.	(8g/L	.	(8b-\L	.
8aa-\)	.	.	.	8gg\)	8b-\	.	.	.	.	.	.	.	.	.	.	.	.	8ff\)	.	8f/)	.	8a-\)	.
(8aa-\	.	4B-'\	.	(8gg\	8b-\	.	4B-'\	4B-\	.	4g/	4G/	.	4g/	4G/	.	4GG/	.	(8ff\	.	(8f/	.	(8a-\	.
8gg\)	.	.	.	8ff\)	8a\	.	.	.	.	.	.	.	.	.	.	.	.	8ee-\)	.	8e-/)	.	8g\)	.
(8gg\	.	4A-'\	.	(8ff\	8a\	.	4A-'\	4A-\	.	4g/	4G/	.	4g/	4G/	.	4GG/	.	(8ee-\	.	(8e-/	.	(8g\	.
8ff\J)	.	.	.	8ee\J)	8g\J	.	.	.	.	.	.	.	.	.	.	.	.	8dd\J)	.	8d/J)	.	8f\J)	.
=41	=41	=41	=41	=41	=41	=41	=41	=41	=41	=41	=41	=41	=41	=41	=41	=41	=41	=41	=41	=41	=41	=41	=41
(4bb-\	.	4G\	.	2.ccc/	(4cc\	.	(4e-\	4B-\	.	2.g/	2.G/	.	2.g/	2.G/	.	4GG/	.	(8ee-\L	.	(8e-/L	.	(4e-\	.
.	.	.	.	.	.	.	.	.	.	.	.	.	.	.	.	.	.	8bb-\)	.	8b-/)	.	.	.
4ddd\	.	4F\	.	.	4bb-\	.	4d\	4A-\	.	.	.	.	.	.	.	4GG/	.	(8bb-\	.	(8b-/	.	4d\	.
.	.	.	.	.	.	.	.	.	.	.	.	.	.	.	.	.	.	8aa-\)	.	8a-/)	.	.	.
4eee-\)	.	4E-\	.	.	4aa\)	.	4e-\)	4G\	.	.	.	.	.	.	.	4GG/	.	(8aa-\	.	(8a-/	.	4e-\)	.
.	.	.	.	.	.	.	.	.	.	.	.	.	.	.	.	.	.	8gg\J)	.	8g/J)	.	.	.
=42	=42	=42	=42	=42	=42	=42	=42	=42	=42	=42	=42	=42	=42	=42	=42	=42	=42	=42	=42	=42	=42	=42	=42
(8ggg\L	.	4A-\	.	(8ccc\L	8aa\L	.	4A-/	4A-\	.	4r	4r	.	4r	4r	.	4r	.	(8gg\L	.	(8g/L	.	(8b-\L	.
8fff\)	.	.	.	8bb-\)	8gg\	.	.	.	.	.	.	.	.	.	.	.	.	8ff\)	.	8f/)	.	8a-\)	.
(8fff\	.	4B-\	.	(8bb-\	8gg\	.	4B-/	4B-\	.	4g/	4G/	.	4g/	4G/	.	4GG/	.	(8ff\	.	(8f/	.	(8a-\	.
8eee-\)	.	.	.	8aa\)	8ff\	.	.	.	.	.	.	.	.	.	.	.	.	8ee-\)	.	8e-/)	.	8g\)	.
(8eee-\	.	4BB-/	.	(8aa\	8ff\	.	4BB-/	4BB-\	.	4g/	4G/	.	4g/	4G/	.	4GG/	.	(8ee-\	.	(8e-/	.	(8g\	.
8ddd\J)	.	.	.	8gg\J)	8ee\J	.	.	.	.	.	.	.	.	.	.	.	.	8dd\J)	.	8d/J)	.	8f\J)	.
=43	=43	=43	=43	=43	=43	=43	=43	=43	=43	=43	=43	=43	=43	=43	=43	=43	=43	=43	=43	=43	=43	=43	=43
4eee-'\	.	4E-\	.	4ff'/	4ff\	.	4E-/	4E-\	.	4e/	4c'/	.	4e/	4c'/	.	4C/	.	4ee-'\	.	4g'/	.	4e-'\	.
(4eee-\	.	4EE-/	.	(4ff\	4a\	.	4EE-/	4EE-\	.	4e/	(4c/	.	4e/	(4c/	.	4C/	.	(4ee-\	.	(4g/	.	4E-/	.
4ggg\)	.	4EE-/	.	4aa\)	4cc\	.	4EE-/	4EE-\	.	4g/	4e/)	.	4g/	4e/)	.	4C/	.	4gg\)	.	4b-/)	.	4E-/	.
=44	=44	=44	=44	=44	=44	=44	=44	=44	=44	=44	=44	=44	=44	=44	=44	=44	=44	=44	=44	=44	=44	=44	=44
4eee-\	.	4EE-/	.	4ff\	4a\	.	4EE-/	4EE-\	.	4e/	4c/	.	4e/	4c/	.	4C/	.	4ee-\	.	4g/	.	4E-/	.
4r	.	4r	.	4r	4r	.	4r	4ryy	.	4r	4ryy	.	4r	4r	.	4r	.	4r	.	4r	.	4r	.
4r	.	4r	.	4r	4r	.	4r	4ryy	.	4r	4ryy	.	4r	4r	.	4r	.	4r	.	4r	.	4r	.
=45:|!	=45:|!	=45:|!	=45:|!	=45:|!	=45:|!	=45:|!	=45:|!	=45:|!	=45:|!	=45:|!	=45:|!	=45:|!	=45:|!	=45:|!	=45:|!	=45:|!	=45:|!	=45:|!	=45:|!	=45:|!	=45:|!	=45:|!	=45:|!
*>C	*	*>C	*	*>C	*	*	*>C	*	*	*>C	*	*	*>C	*	*	*>C	*	*>C	*	*>C	*	*>C	*
*clefG2	*	*clefF4	*	*clefG2	*	*	*clefC4	*	*	*clefG2	*	*	*clefG2	*	*	*clefF4	*	*clefG2	*	*clefG2	*	*clefC3	*
*k[b-e-a-]	*	*k[b-e-a-]	*	*k[b-]	*	*	*k[b-e-a-]	*	*	*k[]	*	*	*k[]	*	*	*k[]	*	*k[b-e-a-]	*	*k[b-e-a-]	*	*k[b-e-a-]	*
*c:	*	*c:	*	*c:	*	*	*c:	*	*	*c:	*	*	*c:	*	*	*c:	*	*c:	*	*c:	*	*c:	*
*M3/4	*	*M3/4	*	*M3/4	*	*	*M3/4	*	*	*M3/4	*	*	*M3/4	*	*	*M3/4	*	*M3/4	*	*M3/4	*	*M3/4	*
! Trio	!	! Trio	!	! Trio	!	!	! Trio	!	!	! Trio	!	!	! Trio	!	!	! Trio	!	! Trio	!	! Trio	!	! Trio	!
!	!	!	!	!	!	!	! Couldn't get a bass clef to print before the time signature & a tenor clef after.	!	!	!	!	!	!	!	!	!	!	!	!	!	!	!	!
!	!	!	!	!	!	!	! Key signature will not print unless the key changes.	!	!	!	!	!	!	!	!	!	!	!	!	!	!	!	!
4ee-\	p	4E-\	p	(2ff/	8F\L	pp	4e-\	4B-/	p	4cc/	4e/	pp	2.r	2.r	.	2.r	.	4r	.	4r	.	4r	.
.	.	.	.	.	8A\	.	.	.	.	.	.	.	.	.	.	.	.	.	.	.	.	.	.
4r	.	4r	.	.	8c\	.	4r	4r	.	4r	4r	.	.	.	.	.	.	4e-'/	p	4G/	p	4B-/	p
.	.	.	.	.	8A\	.	.	.	.	.	.	.	.	.	.	.	.	.	.	.	.	.	.
4r	.	4r	.	4cc/	8c\	.	4r	4r	.	4r	4r	.	.	.	.	.	.	4e-'/	.	4G/	.	4B-/	.
.	.	.	.	.	8A\J	.	.	.	.	.	.	.	.	.	.	.	.	.	.	.	.	.	.
=46	=46	=46	=46	=46	=46	=46	=46	=46	=46	=46	=46	=46	=46	=46	=46	=46	=46	=46	=46	=46	=46	=46	=46
2.r	.	4E-\	.	4aa/	8F\L	.	2.r	2.r	.	2.r	2.r	.	2.r	2.r	.	2.r	.	4r	.	4r	.	4r	.
.	.	.	.	.	8A\	.	.	.	.	.	.	.	.	.	.	.	.	.	.	.	.	.	.
.	.	4r	.	4gg/	8c\	.	.	.	.	.	.	.	.	.	.	.	.	4e-/	.	4G/	.	4B-/	.
.	.	.	.	.	8A\	.	.	.	.	.	.	.	.	.	.	.	.	.	.	.	.	.	.
.	.	4r	.	4ff/)	8c\	.	.	.	.	.	.	.	.	.	.	.	.	4e-/	.	4G/	.	4B-/	.
.	.	.	.	.	8A\J	.	.	.	.	.	.	.	.	.	.	.	.	.	.	.	.	.	.
=47	=47	=47	=47	=47	=47	=47	=47	=47	=47	=47	=47	=47	=47	=47	=47	=47	=47	=47	=47	=47	=47	=47	=47
2.r	.	4BB-/	.	(8ee/L	8G\L	.	2.r	2.r	.	2.r	2.r	.	2.r	2.r	.	2.r	.	4r	.	4r	.	4r	.
.	.	.	.	8gg/	8B-\	.	.	.	.	.	.	.	.	.	.	.	.	.	.	.	.	.	.
.	.	4r	.	8bb-/	8c\	.	.	.	.	.	.	.	.	.	.	.	.	4d/	.	4A-/	.	4B-/	.
.	.	.	.	8aa/	8B-\	.	.	.	.	.	.	.	.	.	.	.	.	.	.	.	.	.	.
.	.	4r	.	8gg/	8c\	.	.	.	.	.	.	.	.	.	.	.	.	4d/	.	4A-/	.	4B-/	.
.	.	.	.	8ff/J	8B-\J	.	.	.	.	.	.	.	.	.	.	.	.	.	.	.	.	.	.
=48	=48	=48	=48	=48	=48	=48	=48	=48	=48	=48	=48	=48	=48	=48	=48	=48	=48	=48	=48	=48	=48	=48	=48
(8dd\L	.	4BB-/	.	4ee/)	8G\L	.	4r	4r	.	4r	4r	.	2.r	2.r	.	2.r	.	4d/	.	4A-/	.	4B-/	.
8ff\	.	.	.	.	8B-\	.	.	.	.	.	.	.	.	.	.	.	.	.	.	.	.	.	.
8aa-\	.	4r	.	4r	8c\	.	(4d'\	4B-\	.	(4ff'\	4dd\	.	.	.	.	.	.	4r	.	4r	.	4r	.
8gg\	.	.	.	.	8B-\	.	.	.	.	.	.	.	.	.	.	.	.	.	.	.	.	.	.
8ff\	.	4r	.	4r	8c\	.	4d'\)	4B-\	.	4ff'\)	4dd\	.	.	.	.	.	.	4r	.	4r	.	4r	.
8ee-\J)	.	.	.	.	8B-\J	.	.	.	.	.	.	.	.	.	.	.	.	.	.	.	.	.	.
=49	=49	=49	=49	=49	=49	=49	=49	=49	=49	=49	=49	=49	=49	=49	=49	=49	=49	=49	=49	=49	=49	=49	=49
4dd\	.	4BB-/	.	(2gg/	8E\L	.	4d\	4B-\	.	4ff\	4dd\	.	2.r	2.r	.	2.r	.	4r	.	4r	.	4r	.
.	.	.	.	.	8G\	.	.	.	.	.	.	.	.	.	.	.	.	.	.	.	.	.	.
4r	.	4r	.	.	8c\	.	4r	4r	.	4r	4r	.	.	.	.	.	.	4a-/	.	4d/	.	4B-/	.
.	.	.	.	.	8G\	.	.	.	.	.	.	.	.	.	.	.	.	.	.	.	.	.	.
4r	.	4r	.	4cc/	8c\	.	4r	4r	.	4r	4r	.	.	.	.	.	.	4a-/	.	4d/	.	4B-/	.
.	.	.	.	.	8G\J	.	.	.	.	.	.	.	.	.	.	.	.	.	.	.	.	.	.
=50	=50	=50	=50	=50	=50	=50	=50	=50	=50	=50	=50	=50	=50	=50	=50	=50	=50	=50	=50	=50	=50	=50	=50
2.r	.	4BB-/	.	4bb-/	8E\L	.	2.r	2.r	.	2.r	2.r	.	2.r	2.r	.	2.r	.	4r	.	4r	.	4r	.
.	.	.	.	.	8G\	.	.	.	.	.	.	.	.	.	.	.	.	.	.	.	.	.	.
.	.	4r	.	4aa/	8c\	.	.	.	.	.	.	.	.	.	.	.	.	4a-/	.	4d/	.	4B-/	.
.	.	.	.	.	8G\	.	.	.	.	.	.	.	.	.	.	.	.	.	.	.	.	.	.
.	.	4r	.	4gg/)	8c\	.	.	.	.	.	.	.	.	.	.	.	.	4a-/	.	4d/	.	4B-/	.
.	.	.	.	.	8G\J	.	.	.	.	.	.	.	.	.	.	.	.	.	.	.	.	.	.
=51	=51	=51	=51	=51	=51	=51	=51	=51	=51	=51	=51	=51	=51	=51	=51	=51	=51	=51	=51	=51	=51	=51	=51
2.r	.	4E-'\	.	(8ff/L	8A\L	.	2.r	2.r	.	2.r	2.r	.	2.r	2.r	.	2.r	.	(2g/	.	(2e-/	.	(2B-/	.
.	.	.	.	8aa/	8c\	.	.	.	.	.	.	.	.	.	.	.	.	.	.	.	.	.	.
.	.	4GG'/	.	8ccc/	8F\	.	.	.	.	.	.	.	.	.	.	.	.	.	.	.	.	.	.
.	.	.	.	8aa/	8c\	.	.	.	.	.	.	.	.	.	.	.	.	.	.	.	.	.	.
.	.	4BB-'/	.	8bb-/	8E\	.	.	.	.	.	.	.	.	.	.	.	.	4f/)	.	4d/)	.	4A-/)	.
.	.	.	.	8gg/J	8c\J	.	.	.	.	.	.	.	.	.	.	.	.	.	.	.	.	.	.
=52	=52	=52	=52	=52	=52	=52	=52	=52	=52	=52	=52	=52	=52	=52	=52	=52	=52	=52	=52	=52	=52	=52	=52
(8ee-\L	.	4EE-'/	.	4ff/)	4F\	.	(2B-\	(2G\	.	(2ee\	(2cc\	.	2.r	2.r	.	2.r	.	4e-/	.	4e-/	.	4G/	.
8gg\	.	.	.	.	.	.	.	.	.	.	.	.	.	.	.	.	.	.	.	.	.	.	.
8bb-\	.	4GG'/	.	4r	4ryy	.	.	.	.	.	.	.	.	.	.	.	.	4r	.	4r	.	4r	.
8gg\	.	.	.	.	.	.	.	.	.	.	.	.	.	.	.	.	.	.	.	.	.	.	.
8aa-\	.	4BB-'/	.	4r	4ryy	.	4d\)	4A-\)	.	4dd\)	4g\)	.	.	.	.	.	.	4r	.	4r	.	4r	.
8ff\J)	.	.	.	.	.	.	.	.	.	.	.	.	.	.	.	.	.	.	.	.	.	.	.
=53:!!:	=53:!!:	=53:!!:	=53:!!:	=53:!!:	=53:!!:	=53:!!:	=53:!!:	=53:!!:	=53:!!:	=53:!!:	=53:!!:	=53:!!:	=53:!!:	=53:!!:	=53:!!:	=53:!!:	=53:!!:	=53:!!:	=53:!!:	=53:!!:	=53:!!:	=53:!!:	=53:!!:
*>D	*	*>D	*	*>D	*	*	*>D	*	*	*>D	*	*	*>D	*	*	*>D	*	*>D	*	*>D	*	*>D	*
4ee-\	.	(2.E-\	.	2.r	2.r	.	4e-\	4B-\	.	4cc/	4e/	.	2.r	2.r	.	2.r	.	2gg\	.	8B-'/L	.	(2.e-\	.
.	.	.	.	.	.	.	.	.	.	.	.	.	.	.	.	.	.	.	.	8e-'/	.	.	.
4r	.	.	.	.	.	.	4r	4r	.	4r	4r	.	.	.	.	.	.	.	.	8g'/	.	.	.
.	.	.	.	.	.	.	.	.	.	.	.	.	.	.	.	.	.	.	.	8e-'/	.	.	.
4r	.	.	.	.	.	.	4r	4r	.	4r	4r	.	.	.	.	.	.	4gg\	.	8B-'/	.	.	.
.	.	.	.	.	.	.	.	.	.	.	.	.	.	.	.	.	.	.	.	8e-'/J	.	.	.
=54	=54	=54	=54	=54	=54	=54	=54	=54	=54	=54	=54	=54	=54	=54	=54	=54	=54	=54	=54	=54	=54	=54	=54
2.r	.	2.D\)	.	2.r	2.r	.	2.r	2.r	.	2.r	2.r	.	2.r	2.r	.	2.r	.	(4gg\	.	8Bn'/L	.	2.d\)	.
.	.	.	.	.	.	.	.	.	.	.	.	.	.	.	.	.	.	.	.	8d'/	.	.	.
.	.	.	.	.	.	.	.	.	.	.	.	.	.	.	.	.	.	4aa-\	.	8f'/	.	.	.
.	.	.	.	.	.	.	.	.	.	.	.	.	.	.	.	.	.	.	.	8d'/	.	.	.
.	.	.	.	.	.	.	.	.	.	.	.	.	.	.	.	.	.	[4gg\)	.	8B'/	.	.	.
.	.	.	.	.	.	.	.	.	.	.	.	.	.	.	.	.	.	.	.	8d'/J	.	.	.
=55	=55	=55	=55	=55	=55	=55	=55	=55	=55	=55	=55	=55	=55	=55	=55	=55	=55	=55	=55	=55	=55	=55	=55
2.r	.	(2C/	.	2.r	2.r	.	2.r	2.r	.	2.r	2.r	.	2.r	2.r	.	2.r	.	(4gg\]	.	8e-'/L	.	(2c/	.
.	.	.	.	.	.	.	.	.	.	.	.	.	.	.	.	.	.	.	.	8g'/	.	.	.
.	.	.	.	.	.	.	.	.	.	.	.	.	.	.	.	.	.	4ccc\	.	8cc'/	.	.	.
.	.	.	.	.	.	.	.	.	.	.	.	.	.	.	.	.	.	.	.	8g'/	.	.	.
.	.	4BB-/)	.	.	.	.	.	.	.	.	.	.	.	.	.	.	.	[4gg-\)	.	8e-'/	.	4B-/)	.
.	.	.	.	.	.	.	.	.	.	.	.	.	.	.	.	.	.	.	.	8c'/J	.	.	.
=56	=56	=56	=56	=56	=56	=56	=56	=56	=56	=56	=56	=56	=56	=56	=56	=56	=56	=56	=56	=56	=56	=56	=56
2.r	.	(2.AAn/	.	2.r	2.r	.	2.r	2.r	.	2.r	2.r	.	2.r	2.r	.	2.r	.	(4gg-\]	.	8e-'/L	.	(2.An/	.
.	.	.	.	.	.	.	.	.	.	.	.	.	.	.	.	.	.	.	.	8cc'/	.	.	.
.	.	.	.	.	.	.	.	.	.	.	.	.	.	.	.	.	.	4ff\)	.	8ee-'/	.	.	.
.	.	.	.	.	.	.	.	.	.	.	.	.	.	.	.	.	.	.	.	8cc'/	.	.	.
.	.	.	.	.	.	.	.	.	.	.	.	.	.	.	.	.	.	[4ff\	.	8an'/	.	.	.
.	.	.	.	.	.	.	.	.	.	.	.	.	.	.	.	.	.	.	.	8e-'/J	.	.	.
=57	=57	=57	=57	=57	=57	=57	=57	=57	=57	=57	=57	=57	=57	=57	=57	=57	=57	=57	=57	=57	=57	=57	=57
2.r	.	4BB-/)	.	2.r	2.r	.	2.r	2.r	.	2.r	2.r	.	2.r	2.r	.	2.r	.	(8ff\L]	.	8d'/L	.	4B-/)	.
.	.	.	.	.	.	.	.	.	.	.	.	.	.	.	.	.	.	8ggn\	.	8f'/	.	.	.
.	.	4r	.	.	.	.	.	.	.	.	.	.	.	.	.	.	.	8aan\	.	8b-'/	.	4r	.
.	.	.	.	.	.	.	.	.	.	.	.	.	.	.	.	.	.	8bb-\	.	8f'/	.	.	.
.	.	4r	.	.	.	.	.	.	.	.	.	.	.	.	.	.	.	8aa\	.	8d'/	.	4r	.
.	.	.	.	.	.	.	.	.	.	.	.	.	.	.	.	.	.	8bb-\J)	.	8f'/J	.	.	.
=58	=58	=58	=58	=58	=58	=58	=58	=58	=58	=58	=58	=58	=58	=58	=58	=58	=58	=58	=58	=58	=58	=58	=58
2.r	.	(2.FF/	.	2.r	2.r	.	2.r	2.r	.	2.r	2.r	.	2.r	2.r	.	2.r	.	(2b-\	.	8d'/L	.	(2.F/	.
.	.	.	.	.	.	.	.	.	.	.	.	.	.	.	.	.	.	.	.	8f'/	.	.	.
.	.	.	.	.	.	.	.	.	.	.	.	.	.	.	.	.	.	.	.	8b-'/	.	.	.
.	.	.	.	.	.	.	.	.	.	.	.	.	.	.	.	.	.	.	.	8f'/	.	.	.
.	.	.	.	.	.	.	.	.	.	.	.	.	.	.	.	.	.	8dd\L	.	8an'/	.	.	.
.	.	.	.	.	.	.	.	.	.	.	.	.	.	.	.	.	.	8cc\J)	.	8e-'/J	.	.	.
=59	=59	=59	=59	=59	=59	=59	=59	=59	=59	=59	=59	=59	=59	=59	=59	=59	=59	=59	=59	=59	=59	=59	=59
2.r	.	4BB-/)	.	2.r	2.r	.	2.r	2.r	.	4r	4r	.	2.r	2.r	.	2.r	.	[2.b-\	.	8d'/L	.	4B-/)	.
.	.	.	.	.	.	.	.	.	.	.	.	.	.	.	.	.	.	.	.	8B-'/	.	.	.
.	.	4r	.	.	.	.	.	.	.	(4dd\	4g\	.	.	.	.	.	.	.	.	(8f/	.	4r	.
.	.	.	.	.	.	.	.	.	.	.	.	.	.	.	.	.	.	.	.	8d/	.	.	.
.	.	4r	.	.	.	.	.	.	.	4ee\	4cc\	.	.	.	.	.	.	.	.	8g/	.	4r	.
.	.	.	.	.	.	.	.	.	.	.	.	.	.	.	.	.	.	.	.	8e-/J	.	.	.
=60	=60	=60	=60	=60	=60	=60	=60	=60	=60	=60	=60	=60	=60	=60	=60	=60	=60	=60	=60	=60	=60	=60	=60
2.r	.	2.r	.	2.r	2.r	.	2.r	2.r	.	4ff\	4dd\	.	2.r	2.r	.	2.r	.	2.b-\_	.	8a-/L	.	2.r	.
.	.	.	.	.	.	.	.	.	.	.	.	.	.	.	.	.	.	.	.	8f/	.	.	.
.	.	.	.	.	.	.	.	.	.	4ee\	4cc\	.	.	.	.	.	.	.	.	8g/	.	.	.
.	.	.	.	.	.	.	.	.	.	.	.	.	.	.	.	.	.	.	.	8e-/	.	.	.
.	.	.	.	.	.	.	.	.	.	4dd\)	4g\	.	.	.	.	.	.	.	.	8f/	.	.	.
.	.	.	.	.	.	.	.	.	.	.	.	.	.	.	.	.	.	.	.	8d/J)	.	.	.
=61	=61	=61	=61	=61	=61	=61	=61	=61	=61	=61	=61	=61	=61	=61	=61	=61	=61	=61	=61	=61	=61	=61	=61
2.r	.	4E-\	.	(2ff/	8F\L	p	2.r	2.r	.	4cc/	4e/	.	2.r	2.r	.	2.r	.	4b-\]	.	4e-/	.	4r	.
.	.	.	.	.	8A\	.	.	.	.	.	.	.	.	.	.	.	.	.	.	.	.	.	.
.	.	4r	.	.	8c\	.	.	.	.	4r	4r	.	.	.	.	.	.	4g/ 4B-/	.	4e-/	.	4E-/	.
.	.	.	.	.	8A\	.	.	.	.	.	.	.	.	.	.	.	.	.	.	.	.	.	.
.	.	4r	.	4cc/	8c\	.	.	.	.	4r	4r	.	.	.	.	.	.	4g/ 4B-/	.	4e-/	.	4E-/	.
.	.	.	.	.	8A\J	.	.	.	.	.	.	.	.	.	.	.	.	.	.	.	.	.	.
=62	=62	=62	=62	=62	=62	=62	=62	=62	=62	=62	=62	=62	=62	=62	=62	=62	=62	=62	=62	=62	=62	=62	=62
2.r	.	4e-\	.	4aa/	8F\L	.	2.r	2.r	.	2.r	2.r	.	2.r	2.r	.	2.r	.	4r	.	4r	.	4r	.
.	.	.	.	.	8A\	.	.	.	.	.	.	.	.	.	.	.	.	.	.	.	.	.	.
.	.	4r	.	4gg/	8c\	.	.	.	.	.	.	.	.	.	.	.	.	4g/ 4B-/	.	4e-/	.	4E-/	.
.	.	.	.	.	8A\	.	.	.	.	.	.	.	.	.	.	.	.	.	.	.	.	.	.
.	.	4r	.	4ff/)	8c\	.	.	.	.	.	.	.	.	.	.	.	.	4g/ 4B-/	.	4e-/	.	4E-/	.
.	.	.	.	.	8A\J	.	.	.	.	.	.	.	.	.	.	.	.	.	.	.	.	.	.
=63	=63	=63	=63	=63	=63	=63	=63	=63	=63	=63	=63	=63	=63	=63	=63	=63	=63	=63	=63	=63	=63	=63	=63
2.r	.	4BB-/	.	(8ee/L	8G\L	.	2.r	2.r	.	2.r	2.r	.	2.r	2.r	.	2.r	.	4r	.	4r	.	4r	.
.	.	.	.	8gg/	8B-\	.	.	.	.	.	.	.	.	.	.	.	.	.	.	.	.	.	.
.	.	4r	.	8bb-/	8c\	.	.	.	.	.	.	.	.	.	.	.	.	4a-/ 4B-/	.	4f/	.	4D/	.
.	.	.	.	8aa/	8B-\	.	.	.	.	.	.	.	.	.	.	.	.	.	.	.	.	.	.
.	.	4r	.	8gg/	8c\	.	.	.	.	.	.	.	.	.	.	.	.	4a-/ 4B-/	.	4f/	.	4D/	.
.	.	.	.	8ff/J	8B-\J	.	.	.	.	.	.	.	.	.	.	.	.	.	.	.	.	.	.
=64	=64	=64	=64	=64	=64	=64	=64	=64	=64	=64	=64	=64	=64	=64	=64	=64	=64	=64	=64	=64	=64	=64	=64
(8dd\L	.	4B-\	.	4ee/)	8G\L	.	4r	4r	.	4r	4r	.	2.r	2.r	.	2.r	.	4a-/ 4B-/	.	4f/	.	4D/	.
8ff\	.	.	.	.	8B-\	.	.	.	.	.	.	.	.	.	.	.	.	.	.	.	.	.	.
*	*	*	*	*	*	*	*clefC4	*	*	*	*	*	*	*	*	*	*	*	*	*	*	*	*
8aa-\	.	4r	.	4r	8c\	.	(4d'\	4B-\	.	(4ff'\	4dd\	.	.	.	.	.	.	4r	.	4r	.	4r	.
8gg\	.	.	.	.	8B-\	.	.	.	.	.	.	.	.	.	.	.	.	.	.	.	.	.	.
8ff\	.	4r	.	4r	8c\	.	4d'\)	4B-\	.	4ff'\)	4dd\	.	.	.	.	.	.	4r	.	4r	.	4r	.
8ee-\J	.	.	.	.	8B-\J	.	.	.	.	.	.	.	.	.	.	.	.	.	.	.	.	.	.
=65	=65	=65	=65	=65	=65	=65	=65	=65	=65	=65	=65	=65	=65	=65	=65	=65	=65	=65	=65	=65	=65	=65	=65
4dd\)	.	4BB-/	.	(2gg/	8E\L	.	4d\	4B-\	.	4ff\	4dd\	.	2.r	2.r	.	2.r	.	4r	.	4r	.	4r	.
.	.	.	.	.	8G\	.	.	.	.	.	.	.	.	.	.	.	.	.	.	.	.	.	.
4r	.	4r	.	.	8c\	.	4r	4r	.	4r	4r	.	.	.	.	.	.	4a-/ 4B-/	.	4f/	.	4D/	.
.	.	.	.	.	8G\	.	.	.	.	.	.	.	.	.	.	.	.	.	.	.	.	.	.
4r	.	4r	.	4cc/	8c\	.	4r	4r	.	4r	4r	.	.	.	.	.	.	4a-/ 4B-/	.	4f/	.	4D/	.
.	.	.	.	.	8G\J	.	.	.	.	.	.	.	.	.	.	.	.	.	.	.	.	.	.
=66	=66	=66	=66	=66	=66	=66	=66	=66	=66	=66	=66	=66	=66	=66	=66	=66	=66	=66	=66	=66	=66	=66	=66
2.r	.	4B-\	.	4bb-/	8E\L	.	2.r	2.r	.	2.r	2.r	.	2.r	2.r	.	2.r	.	4r	.	4r	.	4r	.
.	.	.	.	.	8G\	.	.	.	.	.	.	.	.	.	.	.	.	.	.	.	.	.	.
.	.	4r	.	4aa/	8c\	.	.	.	.	.	.	.	.	.	.	.	.	4a-/ 4B-/	.	4f/	.	4D/	.
.	.	.	.	.	8G\	.	.	.	.	.	.	.	.	.	.	.	.	.	.	.	.	.	.
.	.	4r	.	4gg/)	8c\	.	.	.	.	.	.	.	.	.	.	.	.	4a-/ 4B-/	.	4f/	.	4D/	.
.	.	.	.	.	8G\J	.	.	.	.	.	.	.	.	.	.	.	.	.	.	.	.	.	.
=67	=67	=67	=67	=67	=67	=67	=67	=67	=67	=67	=67	=67	=67	=67	=67	=67	=67	=67	=67	=67	=67	=67	=67
*	*	*	*	*	*	*	*	*	*	*	*	*	*	*	*	*	*	*^	*	*	*	*	*
2.r	.	4e-\	.	(8ff/L	8A\L	.	2.r	2.r	.	2.r	2.r	.	2.r	2.r	.	2.r	.	(2g/	2.B-\	.	(2e-/	.	(2E-/	.
.	.	.	.	8aa/	8c\	.	.	.	.	.	.	.	.	.	.	.	.	.	.	.	.	.	.	.
.	.	4G'\	.	8ccc/	8F\	.	.	.	.	.	.	.	.	.	.	.	.	.	.	.	.	.	.	.
.	.	.	.	8aa/	8c\	.	.	.	.	.	.	.	.	.	.	.	.	.	.	.	.	.	.	.
.	.	4B-'\	.	8bb-/	8E\	.	.	.	.	.	.	.	.	.	.	.	.	4f/)	.	.	4d/)	.	4A-/)	.
.	.	.	.	8gg/J	8c\J	.	.	.	.	.	.	.	.	.	.	.	.	.	.	.	.	.	.	.
=68	=68	=68	=68	=68	=68	=68	=68	=68	=68	=68	=68	=68	=68	=68	=68	=68	=68	=68	=68	=68	=68	=68	=68	=68
!	!	! Men. D.C.	!	!	!	!	!	!	!	!	!	!	!	!	!	!	!	!	!	!	!	!	!	!
*	*	*	*	*	*	*	*	*	*	*	*	*	*	*	*	*	*	*v	*v	*	*	*	*	*
(8ee-\L	.	4E-'\	.	4ff/)	4F\	.	(2B-\	(2G\	.	(2ee\	(2cc\	.	2.r	2.r	.	2.r	.	4e-/	.	4e-/	.	4G/	.
8gg\	.	.	.	.	.	.	.	.	.	.	.	.	.	.	.	.	.	.	.	.	.	.	.
8bb-\	.	4GG'/	.	4r	4ryy	.	.	.	.	.	.	.	.	.	.	.	.	4r	.	4r	.	4r	.
8gg\	.	.	.	.	.	.	.	.	.	.	.	.	.	.	.	.	.	.	.	.	.	.	.
8aa-\	.	4BB-'/	.	4r	4ryy	.	4d\)	4A-\)	.	4dd\)	4g\)	.	.	.	.	.	.	4r	.	4r	.	4r	.
8ff\J)	.	.	.	.	.	.	.	.	.	.	.	.	.	.	.	.	.	.	.	.	.	.	.
==:|!	==:|!	==:|!	==:|!	==:|!	==:|!	==:|!	==:|!	==:|!	==:|!	==:|!	==:|!	==:|!	==:|!	==:|!	==:|!	==:|!	==:|!	==:|!	==:|!	==:|!	==:|!	==:|!	==:|!
*-	*-	*-	*-	*-	*-	*-	*-	*-	*-	*-	*-	*-	*-	*-	*-	*-	*-	*-	*-	*-	*-	*-	*-
!!!RWG: Appoggiaturas of spine 'Violino I' need manual editing in measures: 11, 35, 37, 38
!!!RWG: Key is interpreted using the Humdrum key tool.
!!!AFT: stage2
!!!END: 1996/08/27
!!format changes:
!!content changes:
!!public access: complete
!!!KEY: 809667537
!!!EMD: Converted from MuseData to Humdrum Dec 16, 2000, by Andreas Kornstaedt using muse2kern.
